src/assets/bold/lm-forms-bold.svg

<svg width="24" height="24" viewBox="0 0 24 24" fill="none" xmlns="http://www.w3.org/2000/svg" fill="currentColor">
<path d="M2 6.064C2 5.62628 2.29641 5 2.94286 5H7.71429C8.36073 5 8.65714 5.62628 8.65714 6.064V11.096C8.65714 11.5337 8.36073 12.16 7.71429 12.16H2.94286C2.29641 12.16 2 11.5337 2 11.096V6.064ZM3.54286 6.68V10.48H7.11429V6.68H3.54286Z" fill="black"/>
<path d="M2.7506 13.941C2.96474 13.8711 3.21434 13.84 3.45714 13.84H20.5429C20.7857 13.84 21.0353 13.8711 21.2494 13.941C21.3516 13.9744 21.4904 14.0308 21.621 14.1317C21.7315 14.217 22 14.4658 22 14.904V18.936C22 19.3742 21.7315 19.623 21.621 19.7083C21.4904 19.8092 21.3516 19.8656 21.2494 19.899C21.0353 19.9689 20.7857 20 20.5429 20H3.45714C3.21434 20 2.96474 19.9689 2.7506 19.899C2.64844 19.8656 2.50957 19.8092 2.37902 19.7083C2.26851 19.623 2 19.3742 2 18.936V14.904C2 14.4658 2.26851 14.217 2.37902 14.1317C2.50957 14.0308 2.64844 13.9744 2.7506 13.941ZM3.54286 15.52V18.32H20.4571V15.52H3.54286ZM3.1922 18.2892L3.18818 18.2877C3.18818 18.2877 3.18909 18.2882 3.1922 18.2892ZM20.8123 15.5525L20.8079 15.5508C20.8109 15.5518 20.8123 15.5525 20.8123 15.5525Z" fill="black"/>
<path d="M11.3571 5C11.1496 5 10.9235 5.04704 10.7214 5.16443C10.5524 5.26258 10.2 5.5409 10.2 6.064V11.096C10.2 11.6191 10.5524 11.8974 10.7214 11.9956C10.9235 12.113 11.1496 12.16 11.3571 12.16H20.8429C21.0504 12.16 21.2765 12.113 21.4786 11.9956C21.6476 11.8974 22 11.6191 22 11.096V6.064C22 5.5409 21.6476 5.26258 21.4786 5.16443C21.2765 5.04704 21.0504 5 20.8429 5H11.3571ZM11.7429 10.48V6.68H20.4571V10.48H11.7429Z" fill="black"/>
</svg>

<svg xmlns="http://www.w3.org/2000/svg" width="24" height="24" fill="currentColor" viewBox="0 0 24 24">
  <path d="M2 6.064C2 5.626 2.296 5 2.943 5h4.771c.647 0 .943.626.943 1.064v5.032c0 .438-.296 1.064-.943 1.064H2.943c-.647 0-.943-.626-.943-1.064V6.064Zm1.543.616v3.8h3.571v-3.8H3.543Zm-.793 7.261a2.33 2.33 0 0 1 .707-.101h17.086c.243 0 .492.031.706.101.103.033.241.09.372.19.11.086.379.335.379.773v4.032a.969.969 0 0 1-.379.772c-.13.101-.27.158-.372.191a2.33 2.33 0 0 1-.706.101H3.457a2.33 2.33 0 0 1-.706-.101 1.231 1.231 0 0 1-.372-.19.969.969 0 0 1-.379-.773v-4.032a.97.97 0 0 1 .379-.772c.13-.101.27-.158.372-.191Zm.793 1.579v2.8h16.914v-2.8H3.543Zm-.35 2.77-.005-.002.004.001Zm17.62-2.737-.005-.002a.037.037 0 0 1 .004.002ZM11.357 5a1.27 1.27 0 0 0-.636.164 1.034 1.034 0 0 0-.521.9v5.032c0 .523.352.801.521.9.203.117.429.164.636.164h9.486c.207 0 .433-.047.636-.164.169-.099.521-.377.521-.9V6.064c0-.523-.352-.801-.521-.9A1.27 1.27 0 0 0 20.843 5h-9.486Zm.386 5.48v-3.8h8.714v3.8h-8.714Z"/>
</svg>
